!!!OTL: Jianchi yiuji wupaji
!!!ARE: Asia, China, Fujian Shanghang
!! II, 593, 1)
!!!SCT: C2014
!!!YEM: Copyright 1995, estate of Helmut Schaffrath.
**kern
*ICvox
*Ivox
*M2/4
*k[f#c#g#d#]
*E:
{16ee
16ff#
8ee
8cc#
16cc#
16b
=1
4.ff#
16ee
16cc#
=2
16ee
16ff#
16ee
16cc#
8cc#
8b}
=3
{8cc#
8ff#
16ee
16ff#
8ee
=4
8cc#
16cc#
16b
8cc#
8cc#}
=5
{8b
4b
16cc#
16ff#
=6
8cc#
8ff#
16cc#
16ee
8ee
=7
8cc#
4b
16cc#
16ee}
=8
{8cc#
8ff#
16cc#
16ee
16cc#
16b
=9
4.cc#
16ee
16cc#}
=10
{8b
16cc#
16ee
16cc#
16ee
16ee
16cc#
=11
2b}
==
!!!AGN: Shange, Tipa shange
!!!AMT: simple duple
!!!AIN: vox
!!!EED: Helmut Schaffrath
!!!EEV: 1.0
*-
